src/icons/main-changelog.svg

<svg enable-background="new 0 0 13 14" viewBox="0 0 13 14" xmlns="http://www.w3.org/2000/svg"><path d="m11.5 0c-.3 0-.6.2-.8.5l-.5 1-4.3 2.2c-.3.1-.4.4-.4.7v5.2c0 .3.2.6.4.7l4.4 2.1.5 1c.1.3.4.5.8.5.5 0 .8-.4.8-1v-4.6c.3-.2.6-.7.6-1.3s-.3-1.1-.7-1.3v-4.7c0-.6-.4-1-.8-1zm-10.1 3.9c-.8 0-1.4.7-1.4 1.5v3.1c0 .9.6 1.6 1.4 1.6h1.4v3.1c-.1.5.2.8.6.8s.7-.3.7-.8v-4.6-3.9c0-.4-.3-.8-.7-.8z" fill="#4d5969"/></svg>

<?xml version="1.0" encoding="utf-8"?>
<!-- Generator: Adobe Illustrator 20.1.0, SVG Export Plug-In . SVG Version: 6.00 Build 0)  -->
<svg version="1.1" id="Layer_1" xmlns="http://www.w3.org/2000/svg" xmlns:xlink="http://www.w3.org/1999/xlink" x="0px" y="0px"
	 viewBox="0 0 13 14" style="enable-background:new 0 0 13 14;" xml:space="preserve">
<style type="text/css">
	.st0{fill:#4D5969;}
</style>
<title>HDL/Icon/Standard/changelog</title>
<desc>Created with Sketch.</desc>
<g id="Colors">
	<g id="Main-Icons" transform="translate(-122.000000, -1439.000000)">
		<g id="Alert" transform="translate(101.000000, 1422.000000)">
			<g id="HDL_x2F_Icon_x2F_Standard_x2F_changelog" transform="translate(21.000000, 17.000000)">
				<path id="Shape" class="st0" d="M11.5,0c-0.3,0-0.6,0.2-0.8,0.5l-0.5,1L5.9,3.7C5.6,3.8,5.5,4.1,5.5,4.4v5.2
					c0,0.3,0.2,0.6,0.4,0.7l4.4,2.1l0.5,1c0.1,0.3,0.4,0.5,0.8,0.5c0.5,0,0.8-0.4,0.8-1V8.3C12.7,8.1,13,7.6,13,7
					c0-0.6-0.3-1.1-0.7-1.3V1C12.3,0.4,11.9,0,11.5,0z M1.4,3.9C0.6,3.9,0,4.6,0,5.4v3.1c0,0.9,0.6,1.6,1.4,1.6h1.4v3.1
					C2.7,13.7,3,14,3.4,14s0.7-0.3,0.7-0.8V8.6V4.7c0-0.4-0.3-0.8-0.7-0.8H1.4z"/>
			</g>
		</g>
	</g>
</g>
</svg>
